X: 85
T:Creef Fair. JBa.84
T:Crieff Fair,aka. JBa.84
M:C|
L:1/8
Q:160
S:Joseph Barnes MS,Carlisle,1762.
R:reel
O:England
A:Carlisle
N:The tune above this one is in F major, and  'Crief Fair' in J. Aird
N:Vol 3. Pub in the 1780's is in D minor..CGr.
Z:vmp.C.Graebe.
K:D minor
"No key/time sig,see note"AB AG FG A2 | (cdcA) (cd) cA |\
 ABAG FG Ac |fd ec d/d/d d2 ||!
 defg af ge | fdcA FGAc | defg afge | fdec d/d/d d2 |!
defg afge | fdcA FGAc | AcFc A/A/A ag | fdec d/d/d d2 |]
